X:2073
L:1/8
M:3/4
K:C
"^A""C" c'2 ga g2 |"G7" g2 fg f2 | (3gag fd b2 |"C" (3gag ec c'2 | c'2 ga g2 |"G7" g2 f2 f2 | 
 (3gag fd b2 |"C" c'2 c'2 z2 :|[K:G]"^B""G" Bd gf ed |"Am" f2 e4 |"D7" db a2 a2 |"G" da g2 g2 | 
 Bd gf ed |"Am" f2 e4 |"D7" db a2 a2 |"G7" g2 a2"_>Teil A" b2 ||[K:F]"^C""F" (3Acf a2 a2 | 
"Gm" ag d4 |"C7" (3ceg b2 b2 |"F" c'c' a4 | (3Acf a2 a2 |"Gm" ag d4 |"C7" (3ceg b2 e2 | 
"F" f2 f2 z2 |]

